images_sukapura_svg/cmd/sc_crop.svg

<svg viewBox="0 0 16 16" xmlns="http://www.w3.org/2000/svg">/&amp;gt;<path d="m1 1h11v11h-11z" fill="#fff"/><circle cx="4.5" cy="4.5" fill="#ffd60a" r="2.005997" stroke="#fc0"/><path d="m1.5 11.5-.0330869-.59841 1.5330869-1.40159 2 1.593356 5-4.593356 1.5 3.5v1.5z" fill="#32d74b" fill-rule="evenodd" stroke="#28cd41"/><g fill="#69696e"><rect height="1" ry=".5" width="3" y="12"/><rect height="1" ry=".5" width="3"/><rect height="1" ry=".5" width="3" x="10" y="12"/></g><rect height="2" ry="1" width="10" x="4" y="12"/><rect height="2" ry="1" transform="rotate(90)" width="10" x="4" y="-14"/><path d="m6.875 6c-.4842841 0-.875.3907159-.875.875v.25c0 .4842841.3907159.875.875.875h4.125v-2zm5.125 0v2h3.125c.484284 0 .875-.3907159.875-.875v-.25c0-.4842841-.390716-.875-.875-.875z"/><path d="m6.9824219 6c-.5440408 0-.9824219.4383811-.9824219.9824219v4.0175781h2v-4.0175781c0-.5440408-.4383811-.9824219-.9824219-.9824219zm-.9824219 6v3.017578c0 .544041.4383811.982422.9824219.982422h.0351562c.5440408 0 .9824219-.438381.9824219-.982422v-3.017578z"/><g fill="#69696e"><rect height="3" ry=".5" width="1" x="12"/><rect height="1" ry=".5" width="3" x="4"/><rect height="1" ry=".5" width="3" x="8"/><rect height="3" ry=".5" width="1"/><rect height="3" ry=".5" width="1" y="4"/><rect height="3" ry=".5" width="1" y="8"/></g></svg>

<?xml version="1.0" encoding="UTF-8" standalone="no"?>
<svg
   xmlns:dc="http://purl.org/dc/elements/1.1/"
   xmlns:cc="http://creativecommons.org/ns#"
   xmlns:rdf="http://www.w3.org/1999/02/22-rdf-syntax-ns#"
   xmlns:svg="http://www.w3.org/2000/svg"
   xmlns="http://www.w3.org/2000/svg"
   xmlns:sodipodi="http://sodipodi.sourceforge.net/DTD/sodipodi-0.dtd"
   xmlns:inkscape="http://www.inkscape.org/namespaces/inkscape"
   viewBox="0 0 16 16"
   version="1.1"
   id="svg34"
   sodipodi:docname="sc_crop.svg"
   inkscape:version="0.92.3 (unknown)"><metadata
   id="metadata40">
  <rdf:RDF>
    <cc:Work
       rdf:about="">
      <dc:format>image/svg+xml</dc:format>
      <dc:type
         rdf:resource="http://purl.org/dc/dcmitype/StillImage" />
      <dc:title></dc:title>
    </cc:Work>
  </rdf:RDF>
</metadata>
<defs
   id="defs38">
  <linearGradient
     gradientTransform="translate(75,-7)"
     id="a-367"
     gradientUnits="userSpaceOnUse"
     x1="14"
     x2="13.79661"
     y1="22"
     y2="2.1355929">
    <stop
       offset="0"
       stop-color="#0040dd"
       id="stop2206" />
    <stop
       offset="1"
       stop-color="#0a84ff"
       id="stop2208" />
  </linearGradient>
</defs>
<sodipodi:namedview
   pagecolor="#ffffff"
   bordercolor="#666666"
   borderopacity="1"
   objecttolerance="10"
   gridtolerance="10"
   guidetolerance="10"
   inkscape:pageopacity="0"
   inkscape:pageshadow="2"
   inkscape:window-width="1366"
   inkscape:window-height="706"
   id="namedview36"
   showgrid="true"
   inkscape:zoom="20.85965"
   inkscape:cx="11.083009"
   inkscape:cy="6.420141"
   inkscape:window-x="0"
   inkscape:window-y="0"
   inkscape:window-maximized="1"
   inkscape:current-layer="svg34">
  <inkscape:grid
     type="xygrid"
     id="grid2253"
     spacingx="0.5"
     spacingy="0.5"
     empspacing="2" />
</sodipodi:namedview>
/&gt;<g
   id="g2957">
  <path
     id="path2372"
     d="M 1,1 H 12 V 12 H 1 Z"
     style="fill:#ffffff"
     inkscape:connector-curvature="0"
     sodipodi:nodetypes="ccccc" />
  <circle
     id="circle2374"
     r="2.0059969"
     cy="4.5"
     cx="4.5"
     style="fill:#ffd60a;stroke:#ffcc00" />
  <path
     id="path2376"
     d="M 1.5,11.5 1.4669131,10.90159 3,9.5 5,11.093356 10,6.5 11.5,10 v 1.5 z"
     style="fill:#32d74b;fill-rule:evenodd;stroke:#28cd41"
     inkscape:connector-curvature="0"
     sodipodi:nodetypes="cccccccc" />
</g>
<rect
   style="fill:#69696e;stroke:none;fill-opacity:1"
   x="0"
   id="rect2"
   y="12"
   width="3"
   ry="0.5"
   height="1" />
<rect
   style="fill:#69696e;stroke:none;fill-opacity:1"
   y="0"
   x="0"
   id="rect4"
   width="3"
   ry="0.5"
   height="1" />
<rect
   style="fill:#69696e;fill-opacity:1;stroke:none"
   id="rect6"
   y="12"
   x="10"
   width="3"
   ry="0.5"
   height="1" />
<g
   fill="#4d82b8"
   id="g18"
   style="fill-opacity:1;fill:#000000">
  <rect
     height="2"
     ry="1"
     width="10"
     x="4"
     y="12"
     id="rect10"
     style="fill-opacity:1;fill:#000000" />
  <rect
     height="2"
     ry="1"
     transform="rotate(90)"
     width="10"
     x="4"
     y="-14"
     id="rect12"
     style="fill-opacity:1;fill:#000000" />
  <path
     style="fill-opacity:1;fill:#000000"
     d="M 6.875 6 C 6.3907159 6 6 6.3907159 6 6.875 L 6 7.125 C 6 7.6092841 6.3907159 8 6.875 8 L 11 8 L 11 6 L 6.875 6 z M 12 6 L 12 8 L 15.125 8 C 15.609284 8 16 7.6092841 16 7.125 L 16 6.875 C 16 6.3907159 15.609284 6 15.125 6 L 12 6 z "
     id="rect14" />
  <path
     style="fill-opacity:1;fill:#000000"
     d="M 6.9824219 6 C 6.4383811 6 6 6.4383811 6 6.9824219 L 6 11 L 8 11 L 8 6.9824219 C 8 6.4383811 7.5616189 6 7.0175781 6 L 6.9824219 6 z M 6 12 L 6 15.017578 C 6 15.561619 6.4383811 16 6.9824219 16 L 7.0175781 16 C 7.5616189 16 8 15.561619 8 15.017578 L 8 12 L 6 12 z "
     id="rect16" />
</g>
<rect
   style="fill:#69696e;stroke:none;fill-opacity:1"
   y="0"
   id="rect20"
   x="12"
   width="1"
   ry="0.5"
   height="3" />
<rect
   style="fill:#69696e;stroke:none;fill-opacity:1"
   y="0"
   id="rect22"
   x="4"
   width="3"
   ry="0.5"
   height="1" />
<rect
   style="fill:#69696e;stroke:none;fill-opacity:1"
   y="0"
   id="rect24"
   x="8"
   width="3"
   ry="0.5"
   height="1" />
<rect
   style="fill:#69696e;stroke:none;fill-opacity:1"
   y="0"
   x="0"
   id="rect26"
   width="1"
   ry="0.5"
   height="3" />
<rect
   style="fill:#69696e;stroke:none;fill-opacity:1"
   x="0"
   id="rect28"
   y="4"
   width="1"
   ry="0.5"
   height="3" />
<rect
   style="fill:#69696e;stroke:none;fill-opacity:1"
   x="0"
   id="rect30"
   y="8"
   width="1"
   ry="0.5"
   height="3" />
</svg>
